X:1
T:MacPherson's Lament
M:4/4
L:1/8
K:E
 B,2| E3 F G2F-E|F-EF-G F3 B,| E3 F G2F-E| C6 B,2| E3 F G2F-E|F-EF-G F3 B,|\
 E3 GF-E C2| B,6||G-A| B3 GA-GF-E| G2 F2 F2 GA| B3 GA-GF-E| C6 c2|\
 B3 GA-G FE| G2 F2 F3 B,| E3 GF-E C2| B,6 z2|
